nalufx-ui/ui/assets/sunny.svg

<svg fill="none" height="24" viewBox="0 0 24 24" width="24" xmlns="http://www.w3.org/2000/svg"><path d="m11.2499 5.1999v-3.675h1.5v3.675zm6.075 2.525-1.025-1.025 2.575-2.65 1.05 1.075zm1.475 5.025v-1.5h3.675v1.5zm-7.55 9.725v-3.675h1.5v3.675zm-4.55-14.775-2.65-2.575 1.075-1.05 2.625 2.6zm12.15 12.25-2.55-2.65 1-1 2.625 2.55zm-17.325-7.2v-1.5h3.675v1.5zm3.6 7.2-1.05-1.075 2.575-2.575.55.5.55.525zm6.875-2.45c-1.5333 0-2.83333-.5333-3.9-1.6-1.06666-1.0667-1.6-2.3667-1.6-3.9s.53334-2.83333 1.6-3.9c1.06667-1.06666 2.3667-1.6 3.9-1.6s2.8333.53334 3.9 1.6c1.0667 1.06667 1.6 2.3667 1.6 3.9s-.5333 2.8333-1.6 3.9-2.3667 1.6-3.9 1.6zm0-1.5c1.1 0 2.0417-.3917 2.825-1.175s1.175-1.725 1.175-2.825-.3917-2.04166-1.175-2.825c-.7833-.78333-1.725-1.175-2.825-1.175s-2.04166.39167-2.825 1.175c-.78333.78334-1.175 1.725-1.175 2.825s.39167 2.0417 1.175 2.825c.78334.7833 1.725 1.175 2.825 1.175z" fill="#defb3a"/></svg>

<svg width="24" height="24" viewBox="0 0 24 24" fill="none" xmlns="http://www.w3.org/2000/svg">
<path d="M11.2499 5.1999V1.5249H12.7499V5.1999H11.2499ZM17.3249 7.7249L16.2999 6.6999L18.8749 4.0499L19.9249 5.1249L17.3249 7.7249ZM18.7999 12.7499V11.2499H22.4749V12.7499H18.7999ZM11.2499 22.4749V18.7999H12.7499V22.4749H11.2499ZM6.6999 7.6999L4.0499 5.1249L5.1249 4.0749L7.7499 6.6749L6.6999 7.6999ZM18.8499 19.9499L16.2999 17.2999L17.2999 16.2999L19.9249 18.8499L18.8499 19.9499ZM1.5249 12.7499V11.2499H5.1999V12.7499H1.5249ZM5.1249 19.9499L4.0749 18.8749L6.6499 16.2999L7.1999 16.7999L7.7499 17.3249L5.1249 19.9499ZM11.9999 17.4999C10.4666 17.4999 9.16657 16.9666 8.0999 15.8999C7.03324 14.8332 6.4999 13.5332 6.4999 11.9999C6.4999 10.4666 7.03324 9.16657 8.0999 8.0999C9.16657 7.03324 10.4666 6.4999 11.9999 6.4999C13.5332 6.4999 14.8332 7.03324 15.8999 8.0999C16.9666 9.16657 17.4999 10.4666 17.4999 11.9999C17.4999 13.5332 16.9666 14.8332 15.8999 15.8999C14.8332 16.9666 13.5332 17.4999 11.9999 17.4999ZM11.9999 15.9999C13.0999 15.9999 14.0416 15.6082 14.8249 14.8249C15.6082 14.0416 15.9999 13.0999 15.9999 11.9999C15.9999 10.8999 15.6082 9.95824 14.8249 9.1749C14.0416 8.39157 13.0999 7.9999 11.9999 7.9999C10.8999 7.9999 9.95824 8.39157 9.1749 9.1749C8.39157 9.95824 7.9999 10.8999 7.9999 11.9999C7.9999 13.0999 8.39157 14.0416 9.1749 14.8249C9.95824 15.6082 10.8999 15.9999 11.9999 15.9999Z" fill="#DEFB3A"/>
</svg>
